assets/image/cse-hero.svg

<?xml version="1.0" encoding="UTF-8"?>
<svg width="96px" height="62px" viewBox="0 0 96 62" version="1.1" xmlns="http://www.w3.org/2000/svg" xmlns:xlink="http://www.w3.org/1999/xlink">
    <!-- Generator: Sketch 46 (44423) - http://www.bohemiancoding.com/sketch -->
    <title>Slice</title>
    <desc>Created with Sketch.</desc>
    <defs></defs>
    <g id="Page-1" stroke="none" stroke-width="1" fill="none" fill-rule="evenodd">
        <g id="cse-hero" fill-rule="nonzero" fill="#FFFFFF">
            <path d="M17.5932,12.0737 C17.5932,11.0387 17.2912,10.3207 16.6882,9.9177 C16.0842,9.5167 15.2062,9.3147 14.0572,9.3147 C12.9642,9.3147 12.1022,9.5167 11.4702,9.9177 C10.8362,10.3207 10.5212,11.0387 10.5212,12.0737 L10.5212,49.6747 C10.5212,50.7087 10.8362,51.4287 11.4702,51.8307 C12.1022,52.2337 12.9642,52.4347 14.0572,52.4347 C15.2062,52.4347 16.0842,52.2337 16.6882,51.8307 C17.2912,51.4287 17.5932,50.7087 17.5932,49.6747 L17.5932,36.9967 L28.2002,36.9967 L28.2002,51.5717 C28.2002,53.1817 27.9982,54.6197 27.5962,55.8837 C27.1942,57.1487 26.4762,58.2117 25.4412,59.0747 C24.4062,59.9377 22.9682,60.5987 21.1292,61.0587 C19.2882,61.5177 16.9312,61.7477 14.0572,61.7477 C11.1812,61.7477 8.8402,61.5177 7.0282,61.0587 C5.2172,60.5987 3.7952,59.9377 2.7592,59.0747 C1.7242,58.2117 1.0052,57.1487 0.6042,55.8837 C0.2002,54.6197 0.0002,53.1817 0.0002,51.5717 L0.0002,10.1767 C0.0002,8.5677 0.2002,7.1297 0.6042,5.8647 C1.0052,4.6007 1.7242,3.5357 2.7592,2.6737 C3.7952,1.8117 5.2172,1.1507 7.0282,0.6897 C8.8402,0.2307 11.1812,-0.0003 14.0572,-0.0003 C16.9312,-0.0003 19.2882,0.2307 21.1292,0.6897 C22.9682,1.1507 24.4062,1.8117 25.4412,2.6737 C26.4762,3.5357 27.1942,4.6007 27.5962,5.8647 C27.9982,7.1297 28.2002,8.5677 28.2002,10.1767 L28.2002,24.1477 L17.5932,24.1477 L17.5932,12.0737 Z" id="Fill-69"></path>
            <path d="M52.8642,11.3839 C52.8642,10.0039 51.6852,9.3139 49.3282,9.3139 C46.8552,9.3139 45.6202,10.0039 45.6202,11.3839 L45.6202,16.9889 C45.6202,17.9679 45.7202,18.7139 45.9212,19.2319 C46.1232,19.7489 46.3962,20.1809 46.7412,20.5249 L59.8502,32.5129 C60.9992,33.4909 61.9192,34.6119 62.6092,35.8759 C63.2992,37.1409 63.6442,38.9239 63.6442,41.2229 L63.6442,51.1409 C63.6442,54.9349 62.5082,57.6519 60.2382,59.2899 C57.9652,60.9289 54.3302,61.7479 49.3282,61.7479 C46.7412,61.7479 44.5122,61.5759 42.6442,61.2309 C40.7752,60.8859 39.2662,60.2969 38.1172,59.4629 C36.9662,58.6299 36.1192,57.5369 35.5732,56.1859 C35.0262,54.8349 34.7542,53.1539 34.7542,51.1409 L34.7542,37.6009 L45.2752,37.6009 L45.2752,49.9329 C45.2752,50.8539 45.6342,51.5009 46.3532,51.8739 C47.0722,52.2479 48.0632,52.4349 49.3282,52.4349 C50.4202,52.4349 51.3122,52.2479 52.0022,51.8739 C52.6922,51.5009 53.0372,50.8539 53.0372,49.9329 L53.0372,42.2579 C53.0372,41.4529 52.9502,40.8069 52.7782,40.3179 C52.6052,39.8299 52.2892,39.3839 51.8292,38.9809 L39.5832,28.3729 C38.1452,27.1089 37.0242,25.7299 36.2202,24.2339 C35.4142,22.7389 35.0132,20.6409 35.0132,17.9379 L35.0132,10.6079 C35.0132,6.7569 36.1342,4.0249 38.3762,2.4149 C40.6182,0.8059 44.2682,-0.0001 49.3282,-0.0001 C54.6172,-0.0001 58.2972,0.8189 60.3672,2.4579 C62.4372,4.0969 63.4722,6.6989 63.4722,10.2629 L63.4722,21.4739 L52.8642,21.4739 L52.8642,11.3839 Z" id="Fill-71"></path>
            <polygon id="Fill-73" points="71.0598 0.6899 95.5518 0.6899 95.5518 10.0039 81.6668 10.0039 81.6668 25.0959 95.1208 25.0959 95.1208 34.4099 81.6668 34.4099 81.6668 51.7439 95.5518 51.7439 95.5518 61.0579 71.0598 61.0579"></polygon>
        </g>
    </g>
</svg>

<svg width="96" height="62" xmlns="http://www.w3.org/2000/svg"><path d="M17.593 12.074c0-1.035-.302-1.753-.905-2.156-.604-.401-1.482-.603-2.63-.603-1.094 0-1.956.202-2.588.603-.634.403-.949 1.12-.949 2.156v37.6c0 1.035.315 1.755.95 2.157.631.403 1.493.604 2.586.604 1.15 0 2.027-.201 2.631-.604.603-.402.905-1.122.905-2.156V36.997H28.2v14.575c0 1.61-.202 3.048-.604 4.312a6.734 6.734 0 0 1-2.155 3.19c-1.035.864-2.473 1.525-4.312 1.985-1.84.459-4.198.689-7.072.689-2.876 0-5.217-.23-7.029-.69-1.81-.46-3.233-1.12-4.269-1.983a6.727 6.727 0 0 1-2.155-3.191C.2 54.62 0 53.182 0 51.572V10.177c0-1.61.2-3.047.604-4.312A6.727 6.727 0 0 1 2.76 2.674C3.795 1.812 5.217 1.15 7.03.69 8.84.23 11.18 0 14.056 0c2.874 0 5.231.23 7.072.69 1.84.46 3.277 1.122 4.312 1.984a6.734 6.734 0 0 1 2.155 3.19c.402 1.266.604 2.704.604 4.313v13.97H17.593V12.075zm35.271-.69c0-1.38-1.179-2.07-3.536-2.07-2.473 0-3.708.69-3.708 2.07v5.605c0 .979.1 1.725.301 2.243.202.517.475.949.82 1.293l13.11 11.988a11.86 11.86 0 0 1 2.758 3.363c.69 1.265 1.035 3.048 1.035 5.347v9.918c0 3.794-1.136 6.51-3.406 8.149-2.273 1.639-5.908 2.458-10.91 2.458-2.587 0-4.816-.172-6.684-.517-1.869-.345-3.378-.934-4.527-1.768-1.15-.833-1.998-1.926-2.544-3.277-.547-1.351-.819-3.032-.819-5.045V37.6h10.521v12.332c0 .92.36 1.568 1.078 1.94.72.375 1.71.562 2.975.562 1.092 0 1.984-.187 2.674-.561.69-.373 1.035-1.02 1.035-1.941v-7.675c0-.805-.087-1.451-.259-1.94-.173-.488-.489-.934-.949-1.337L39.583 28.373c-1.438-1.264-2.559-2.643-3.363-4.14-.806-1.494-1.207-3.592-1.207-6.295v-7.33c0-3.851 1.121-6.583 3.363-8.193C40.618.805 44.268 0 49.328 0c5.29 0 8.97.819 11.04 2.458 2.07 1.639 3.104 4.24 3.104 7.805v11.21H52.864v-10.09zM71.06.69h24.492v9.314H81.667v15.092H95.12v9.314H81.667v17.334h13.885v9.314H71.06z" fill="#FFF"/></svg>
